html/app/assets/img/ui/cc.svg

<svg fill="none" height="14" viewBox="0 0 18 14" width="18" xmlns="http://www.w3.org/2000/svg"><path d="m17.1377 5.12109h-16m7.2 3.2h-4m-3.2-4.64v6.08c0 .89611 0 1.34411.17438 1.68641.1534.301.39817.5458.69923.6992.34226.1744.7903.1744 1.68639.1744h10.88c.8961 0 1.3441 0 1.6864-.1744.301-.1534.5458-.3982.6992-.6992.1744-.3423.1744-.7903.1744-1.68641v-6.08c0-.89608 0-1.34412-.1744-1.68638-.1534-.30106-.3982-.54583-.6992-.69923-.3423-.17439-.7903-.17439-1.6864-.17439h-10.88c-.89609 0-1.34413 0-1.68639.17439-.30106.1534-.54583.39817-.69922.69923-.17439.34226-.17439.7903-.17439 1.68638z" stroke="#222" stroke-linecap="round" stroke-linejoin="round" stroke-width="1.5"/></svg>

<svg width="18" height="14" viewBox="0 0 18 14" fill="none" xmlns="http://www.w3.org/2000/svg">
<path d="M17.1377 5.12109H1.1377M8.3377 8.32109H4.3377M1.1377 3.68109L1.1377 9.76109C1.1377 10.6572 1.1377 11.1052 1.31208 11.4475C1.46548 11.7485 1.71025 11.9933 2.01131 12.1467C2.35357 12.3211 2.80161 12.3211 3.6977 12.3211L14.5777 12.3211C15.4738 12.3211 15.9218 12.3211 16.2641 12.1467C16.5651 11.9933 16.8099 11.7485 16.9633 11.4475C17.1377 11.1052 17.1377 10.6572 17.1377 9.76109V3.68109C17.1377 2.78501 17.1377 2.33697 16.9633 1.99471C16.8099 1.69365 16.5651 1.44888 16.2641 1.29548C15.9218 1.12109 15.4738 1.12109 14.5777 1.12109L3.6977 1.12109C2.80161 1.12109 2.35357 1.12109 2.01131 1.29548C1.71025 1.44888 1.46548 1.69365 1.31209 1.99471C1.1377 2.33697 1.1377 2.78501 1.1377 3.68109Z" stroke="#222222" stroke-width="1.5" stroke-linecap="round" stroke-linejoin="round"/>
</svg>
